X: 8459
T: Craig O'Barns
R: strathspey
M: 4/4
K: Adorian
e<a|:"am"e2 d<B A2 A<B|"G" G<E D>E G>A B<d|"am" e2 d<B B<A (3ABA|1 "G"G>g e>d "am" B>A A<a ]:|2 "G" G>g e>d "am" B>A A<B]||
|:"G"G>B d>e d<B d2|"em" e>d e>g a>b a>g|e<g d<B "G" G>A B>d|1 "em" e<g d>g "am"B>A A>B]:|2 "em"e<g d>g "am"B>A A<a||

